Hatter-kde/actions/16/transform-affect-rounded-corners.svg

<?xml version="1.0" encoding="UTF-8"?>
<svg viewBox="0 0 16 16" xmlns="http://www.w3.org/2000/svg">
 <defs id="defs3051">
  <style id="current-color-scheme" type="text/css">.ColorScheme-Text {
        color:#363636;
      }
      .ColorScheme-Highlight {
        color:#3daee9;
      }</style>
 </defs>
 <path class="ColorScheme-Text" d="m2 2v1h6a5 5 0 0 1 5 5v3h1v-3a6 6 0 0 0-6-6h-6zm0 4v1h6a1 1 0 0 1 1 1v3h1v-3a2 2 0 0 0-2-2h-6z" fill="currentColor"/>
 <path class="ColorScheme-Highlight" d="m5.17 14.33-0.707-0.707 1.621-1.621h-4.076v-1h4.076l-1.621-1.621 0.707-0.707 2.828 2.828-0.707 0.707z" fill="currentColor"/>
</svg>

<svg xmlns="http://www.w3.org/2000/svg" viewBox="0 0 16 16">
  <defs id="defs3051">
    <style type="text/css" id="current-color-scheme">
      .ColorScheme-Text {
        color:#363636;
      }
      .ColorScheme-Highlight {
        color:#3daee9;
      }
      </style>
  </defs>
 <path 
     style="fill:currentColor;fill-opacity:1;stroke:none" 
     d="M 2 2 L 2 3 L 8 3 A 5 5 0 0 1 13 8 L 13 11 L 14 11 L 14 8 A 6 6 0 0 0 8 2 L 2 2 z M 2 6 L 2 7 L 8 7 A 1 1 0 0 1 9 8 L 9 11 L 10 11 L 10 8 A 2 2 0 0 0 8 6 L 2 6 z "
     class="ColorScheme-Text"/>
  <path
     style="fill:currentColor;fill-opacity:1;stroke:none" 
     d="m 5.17,14.33 -0.707,-0.707 1.621,-1.621 -4.076,0 0,-1 4.076,0 L 4.463,9.381 5.17,8.674 7.998,11.502 7.291,12.209 Z" 
     class="ColorScheme-Highlight"/>
</svg>
